assets/img/ques.svg

<?xml version="1.0" encoding="UTF-8"?>
<svg width="20px" height="20px" viewBox="0 0 20 20" version="1.1" xmlns="http://www.w3.org/2000/svg" xmlns:xlink="http://www.w3.org/1999/xlink">
    <!-- Generator: Sketch 64 (93537) - https://sketch.com -->
    <title>ask</title>
    <desc>Created with Sketch.</desc>
    <g id="Welcome" stroke="none" stroke-width="1" fill="none" fill-rule="evenodd">
        <g id="lpw-addons-1.1" transform="translate(-336.000000, -625.000000)" fill="#018E37" fill-rule="nonzero">
            <g id="ask" transform="translate(336.000000, 625.000000)">
                <path d="M9.9858156,0 C4.47080193,0 0,4.47080193 0,9.9858156 C0,15.5008293 4.47080193,19.9716312 9.9858156,19.9716312 C15.5008293,19.9716312 19.9716312,15.5008293 19.9716312,9.9858156 C19.9651282,4.47349782 15.4981334,0.00650303606 9.9858156,0 Z M9.9858156,16.3404255 C9.48445072,16.3404255 9.07801418,15.933989 9.07801418,15.4326241 C9.07801418,14.9312592 9.48445072,14.5248227 9.9858156,14.5248227 C10.4871805,14.5248227 10.893617,14.9312592 10.893617,15.4326241 C10.893617,15.933989 10.4871805,16.3404255 9.9858156,16.3404255 Z M12.1100709,10.2073191 C11.3801479,10.6890153 10.9272453,11.4930863 10.893617,12.3669787 L10.893617,12.7092199 C10.893617,13.2105847 10.4871805,13.6170213 9.9858156,13.6170213 C9.48445072,13.6170213 9.07801418,13.2105847 9.07801418,12.7092199 L9.07801418,12.3669787 C9.10723281,10.9090393 9.8411114,9.55564399 11.0470355,8.73577305 C11.6372928,8.31151381 11.9176078,7.57609276 11.7595002,6.86658476 C11.6013926,6.15707676 11.0353423,5.61026079 10.3207943,5.47676596 C9.7896773,5.3770631 9.24175061,5.51912949 8.82599034,5.86433863 C8.41023006,6.20954777 8.16985204,6.72201721 8.17021277,7.26241135 C8.17021277,7.76377623 7.76377623,8.17021277 7.26241135,8.17021277 C6.76104647,8.17021277 6.35460993,7.76377623 6.35460993,7.26241135 C6.35460993,5.54633163 7.5558589,4.06449518 9.23483812,3.70958903 C10.9138173,3.35468288 12.6120333,4.22361229 13.3064476,5.79291731 C14.000862,7.36222233 13.5018687,9.20341251 12.1100709,10.2073191 L12.1100709,10.2073191 Z" id="Shape"></path>
            </g>
        </g>
    </g>
</svg>

<svg width="20" height="20" xmlns="http://www.w3.org/2000/svg"><path d="M9.986 0A9.985 9.985 0 000 9.986c0 5.515 4.47 9.986 9.986 9.986 5.515 0 9.986-4.471 9.986-9.986C19.965 4.473 15.498.006 9.986 0zm0 16.34a.908.908 0 110-1.815.908.908 0 010 1.815zm2.124-6.133a2.713 2.713 0 00-1.216 2.16v.342a.908.908 0 01-1.816 0v-.342a4.5 4.5 0 011.969-3.631A1.816 1.816 0 108.17 7.262a.908.908 0 01-1.815 0 3.631 3.631 0 115.755 2.945z" fill="#018E37"/></svg>
